src/actions/24/flag.svg

<svg xmlns="http://www.w3.org/2000/svg" viewBox="0 0 24 24">
  <defs id="defs3051">
    <style type="text/css" id="current-color-scheme">
      .ColorScheme-Text {
        color:#2e3440;
      }
      </style>
  </defs>
 <path style="fill:currentColor;fill-opacity:1;stroke:none" 
     d="M 4 4 L 4 20 L 5 20 L 5 13 L 10 12 L 11 11.800781 L 11 13.800781 L 20 12 L 18 11 L 20 10 L 11 7.5996094 L 11 5.5996094 L 10 5.3339844 L 5 4 L 4 4 z "
     class="ColorScheme-Text"
     />
</svg>

<svg viewBox="0 0 24 24" xmlns="http://www.w3.org/2000/svg">
 <defs>
  <style type="text/css">.ColorScheme-Text {
        color:#2e3440;
      }</style>
 </defs>
 <path class="ColorScheme-Text" d="m4 4v16h1v-7l5-1 1-0.19922v2l9-1.8008-2-1 2-1-9-2.4004v-2l-1-0.26562-5-1.334h-1z" fill="currentColor"/>
</svg>
